X: 25
T: Cantiga 25: Pagar ben pod'
N: 39 in To
B:Cantigas de Santa Maria
F:http://www.pbm.com/~lindahl/cantigas/facsimiles/E/094small.html
F:http://www.pbm.com/~lindahl/cantigas/facsimiles/To/bob037small.gif
F:http://www.pbm.com/~lindahl/cantigas/facsimiles/To/bob038small.gif
Z:Ali Corbin <ali.corbin:gmail.com>
M: 4/4
L: 1/4
Q: 1/4=220
K: G Mixolydian
V:1
%Staff 1
%%MIDI program 74
%
  B2  B   c | d2  (c>d)|A2 (G>A)|(G2F2)|A2 B  c| d2 (cB)|(B>A) (GF) |G2 G2||
w:Pa-gar ben pod'  o*   que de-*  ver*  o que à Ma- dre*  de*  Deus* fi-a.
%
  B2 B  c | d2 (dc)|d2 (e>d)|(d2c2)|e2   e   e|f2  d2| e2 (d>c)|B2 B2 |
w:E de-sto vos que-*ro  con-*tar*   un gran mi-ra-gre mui fre-* mo-so,
   B2  B  c|d2 (dc)|  d2 (e>d)|(d2c2)|e2  e   e| f2   d2| e2 (d>c)|B2 B2|
w:que fez o a   Vir-*gen  sen*  par,* Ma-dre do gran Rei gro- ri-* o- so,
   B2 B  c|d2 (c>d)| A2 (G>A)|(G2F2)|A2  B  c|d2 (cB)|(B>A) (GF)|G2 G2|
w:por un o-me  que* seu  a-*   ver*  to-do ja de-spen-*dud'* a-* vi-a
   B2  B  c | d2 (c>d)|A2 (G>A)|(G2F2)|A2  B   c|d2 (cB)|(B>A) (GF)|G2 G2||
w:por fa-zer ben  e*  mais va-* ler,*  ca non ja en  ou-* tra*  fo-*li-a.
%%
%%begintext center
%%
%%Esta é como a ymagen de Santa Maria falou en testimonio ontr'o crischão e o judeu.
%%
%%
%%  Pagar ben pod' o que dever
%%  o que à Madre de Deus fia.
%%
%%endtext
%
W:E desto vos quero contar
W:un gran miragre mui fremoso,
W:que fez o a Virgen sen par,
W:Madre do gran Rei grorioso,
W:por un ome que seu aver
W:todo ja despendud' avia
W:por fazer ben e mais valer,
W:ca non ja en outra folia.
W:  Pagar ben pod' o que dever...
W:
W:Quand' aquel bon ome o seu
W:aver ouv' assi despendudo,
W:non pod' achar, com' aprix eu,
W:d' estrãyo nen de connoçudo
W:quen sol ll' emprestido fazer
W:quisess'; e pois esto viia,
W:a un judeu foi sen lezer
W:provar se ll' alg' enprestaria.
W:  Pagar ben pod' o que dever...
W:
W:E o judeu lle diss' enton:
W:«Amig', aquesto que tu queres
W:farei eu mui de coraçon
W:sobre bon pennor, se mio deres.»
W:Disse-ll' o crischão: «Poder
W:d'esso fazer non averia,
W:mas fiador quero seer
W:de cho pagar ben a un dia.»
W:  Pagar ben pod' o que dever...
W:
W:O judeu lle respos assi:
W:«Sen pennor non será ja feito
W:que o per ren leves de mi.»
W:Diz o crischão: «Fas un preito:
W:ir-t-ei por fiador meter
W:Jeso-Crist' e Santa Maria.»
W:Respos el: «Non quer' eu creer
W:en eles; mas fillar-chos-ya,
W:  Pagar ben pod' o que dever...
W:
W:Porque sei que santa moller
W:foi ela, e el ome santo
W:e profeta; poren, senner,
W:fillar-chos quer' e dar-ch-ei quanto
W:quiscres, tod' a teu prazer.»
W:E o crischão respondia:
W:«Sas omagenes, que veer
W:posso, dou-t' en fiadoria.»
W:  Pagar ben pod' o que dever...
W:
W:Pos o judeu est' outorgou,
W:ambos se foron mantenente,
W:e as omagenes lle mostrou
W:o crischão, e ant' a gente
W:tangeu e fillou-ss' a dizer
W:que por fiança llas metia
W:por que ll' o seu fosse render
W:a seu prazo sen tricharia.
W:  Pagar ben pod' o que dever...
W:
W:«E vos, Jeso-Cristo, Sennor,
W:e vos, sa Madre muit' onrrada,»
W:diss' el, «se daqui longe for
W:ou mia fazenda enbargada,
W:non possa per prazo perder,
W:se eu pagar non llo podia
W:per mi, mas vos ide põer
W:a paga u mia eu porria.
W:   Pagar ben pod' o que dever...
W:
W:Ca eu a vos lo pagarei,
W:e vos fazer a el a paga,
W:por que non diga pois: «Non ei
W:o meu», e en preito me traga,
W:nen mio meu faça despender
W:con el andand' en preitesia;
W:ca se de coita a morrer
W:ouvesse, desta morreria.»
W:  Pagar ben pod' o que dever...
W:
W:Poi-lo crischão assi fis
W:fez o judeu, a poucos dias
W:con seu aver quant' ele quis
W:gãou en bõas merchandias;
W:ca ben se soub' entrameter
W:dest' e ben faze-lo sabia;
W:mas foi-ll' o praz' escaecer
W:a que o el pagar devia.
W:   Pagar ben pod' o que dever...
W:
W:O crischão, que non mentir
W:quis daquel prazo que posera,
W:ant' un dia que a viir
W:ouvesse, foi en coita fera;
W:e por esto fez compõer
W:un' arca, e dentro metia
W:quant' el ao judeu render
W:ouv', e diss': «Ai, Deus, tu o guia.»
W:  Pagar ben pod' o que dever...
W:
W:Dizend' est', en mar la meteu;
W:e o vento moveu as ondas,
W:e outro dia pareceu
W:no porto das aguas mui fondas
W:de Besanç'. E pola prender
W:un judeu mui toste corria,
W:mas log' y ouv' a falecer,
W:que a arc' ant' ele fogia.
W:  Pagar ben pod' o que dever...
W:
W:E pois o judeu esto vyu,
W:foi, metendo mui grandes vozes,
W:a seu sennor, e el sayu
W:e disse-lle: «Sol duas nozes
W:non vales, que fuste temer
W:o mar con mui gran covardia;
W:mas esto quer' eu cometer,
W:ben leu a mi Deus la daria.»
W:  Pagar ben pod' o que dever...
W:
W:Pois esto disse, non fez al,
W:mas correu alá sen demora,
W:e a archa en guisa tal
W:fez que aportou ant' el fora.
W:Enton foi ssa mão tender
W:e fillou-a con alegria,
W:ca non sse podia soffrer
W:de saber o que y jazia.
W:  Pagar ben pod' o que dever...
W:
W:Des i feze-a levar en
W:a ssa casa, e seus dineiros
W:achou en ela. E mui ben
W:se guardou de seus conpanneiros
W:que non ll' ouvessen d' entender
W:de como os el ascondia;
W:poi-los foi contar e volver,
W:a arca pos u el dormia.
W:  Pagar ben pod' o que dever...
W:
W:Pois ouve feito de ssa prol,
W:o mercador ali chegava,
W:e o judeu ben come fol
W:mui de rrijo lle demandava
W:que lle dess' o que ll' acreer
W:fora; se non, que el diria
W:atal cousa per que caer
W:en gran vergonna o faria.
W:  Pagar ben pod' o que dever...
W:
W:O crischão disse: «Fiel
W:bõo tenno que t' ey pagado:
W:a Virgen, madre do donzel
W:que no altar ch' ouvi mostrado,
W:que te fará ben connocer
W:como foi, ca non mentiria;
W:e tu non queras contender
W:con ela, que mal t' en verria.»
W:  Pagar ben pod' o que dever...
W:
W:Diss' o judeu: «Desso me praz;
W:pois vaamos aa eigreja,
W:e se o disser en mia faz
W:a ta omagen, feito seja.»
W:Enton fillaron-s' a correr,
W:e a gente pos eles ya,
W:todos con coita de saber
W:o que daquel preit' averria.
W:  Pagar ben pod' o que dever...
W: 
W:Pois na eigreja foron, diz
W:o crischão: «Ai, Majestade
W:de Deus, se esta paga fiz,
W:rogo-te que digas verdade
W:per que tu faças parecer
W:do judeu ssa aleivosia,
W:que contra mi cuida trager
W:do que lle dar non deveria.»
W:  Pagar ben pod' o que dever...
W: 
W:Enton diss' a Madre de Deus,
W:per como eu achei escrito:
W:«A falssidade dos judeus
W:é grand'; e tu, judeu maldito,
W:sabes que fuste receber
W:teu aver, que ren non falia,
W:e fuste a arc' asconder
W:so teu leito con felonia.»
W:  Pagar ben pod' o que dever...
W:
W:Quand' est' o judeu entendeu,
W:benes ali logo de chão
W:en Santa Maria creeu
W:e en seu Fill', e foi crischão;
W:ca non vos quis escaecer
W:o que profetou Ysaya,
W:como Deus verria nacer
W:da Virgen por nos todavia.
W:  Pagar ben pod' o que dever
W:  o que à Madre de Deus fia.


%%landscape 0
